X: 116
T: Pollonesse #116
M: 3/4
L: 1/16
R: Pollonesse
K: Bb
Q: 110
d6ed cecA|B2dB F2F4 GA|B2dB f2dB f2dB|=Bcdc _BAGF =EFAc|
d6ed cecA|B2dB F2F4 GA|B2dB f2dB b2ge|dfAc c4 B2z2:|
|:F2a4ga bagf|=efge B2AB cBAB|B2 _e4 fe edcB|f4 f=efd c4:|
d6ed cecA|B2dB F2F4 GA|B2dB f2dB f2dB|=Bcdc _BAGF =EFAc|
d6ed cecA|B2dB F2F4 GA|B2dB f2dB b2ge|dfAc c4 B2z2|

